apps/ui-icons/svgs/visibility_off.svg

<svg viewBox="0 0 24 24" width="24" height="24"  fill="none" xmlns="http://www.w3.org/2000/svg">
<path fill-rule="evenodd" clip-rule="evenodd" d="M18.7193 6.69471C19.103 6.29745 19.092 5.66438 18.6947 5.28071C18.2975 4.89703 17.6644 4.90804 17.2807 5.30529L15.7624 6.87736C14.601 6.34843 13.3308 6 11.9999 6C8.73893 6 5.84254 8.09177 4.01706 9.80515C2.72608 11.0168 2.72608 12.9832 4.01706 14.1949C4.74873 14.8816 5.65244 15.6291 6.6827 16.2784L4.98792 18.0331C4.60424 18.4304 4.61525 19.0635 5.01251 19.4471C5.40976 19.8308 6.04283 19.8198 6.4265 19.4226L18.7193 6.69471ZM8.67146 14.2192L14.1022 8.59634C13.4913 8.21825 12.7711 8 11.9999 8C9.79074 8 7.99988 9.79086 7.99988 12C7.99988 12.821 8.24723 13.5842 8.67146 14.2192Z" fill="#171D26"/>
<path d="M15.9999 12C15.9999 14.2008 14.2225 15.9864 12.0249 15.9999L10.2762 17.8106C10.8361 17.932 11.4121 18 11.9999 18C15.2608 18 18.1572 15.9082 19.9827 14.1949C21.2737 12.9832 21.2737 11.0168 19.9827 9.80515C19.6582 9.50058 19.2999 9.18406 18.9117 8.86945L15.9983 11.8859C15.9993 11.9238 15.9999 11.9619 15.9999 12Z" fill="#171D26"/>
</svg>

<svg xmlns="http://www.w3.org/2000/svg" width="24" height="24" fill="none" viewBox="0 0 24 24">
  <path fill="#171D26" fill-rule="evenodd" d="M18.72 6.695a1 1 0 1 0-1.44-1.39l-1.518 1.572C14.601 6.348 13.331 6 12 6 8.739 6 5.843 8.092 4.017 9.805c-1.29 1.212-1.29 3.178 0 4.39a17.885 17.885 0 0 0 2.666 2.083l-1.695 1.755a1 1 0 0 0 1.438 1.39L18.72 6.695ZM8.67 14.219l5.431-5.623a4 4 0 0 0-5.43 5.623Z" clip-rule="evenodd"/>
  <path fill="#171D26" d="M16 12a4 4 0 0 1-3.975 4l-1.749 1.81c.56.122 1.136.19 1.724.19 3.26 0 6.157-2.092 7.983-3.805 1.29-1.212 1.29-3.178 0-4.39a19.617 19.617 0 0 0-1.071-.936l-2.914 3.017L16 12Z"/>
</svg>
